!!!Genre:	Freylekhs
!!!Mode:	Altered Dorian
!!!Listening/dance:	dance
!!!:	*g:; *G:; *g:
!!!One_Mode:	no
**kern
*part1
*staff1
*clefG2
*k[b-e-]
*>bM
*g:
*M2/4
=1-
*>A
(>8qd/
*^
8gL)	2G
8gJ	.
(>8gL	.
8dJ)	.
=2	=2
8gL	2G
8gJ	.
(>8gL	.
8dJ)	.
=3	=3
(>8gL	2G
16ccL	.
16b-JJ)	.
(>16aLL	.
16g	.
16a	.
16b-JJ)	.
=4	=4
16gLL	2G
16d	.
16g	.
16dJJ	.
8b-L	.
16aL	.
16gJJ	.
=5	=5
8gL	2G
16ccL	.
16b-JJ	.
16aLL	.
16g	.
16a	.
16b-JJ	.
=6	=6
2g	2G
*v	*v
*>eM
*g:
=52
16aLL
16b
16cc
16aJJ
4g
*>bM
*g:
=53:|!
*k[b-e-]
4d
16f#XLL
16d
16f#
16aJJ
=54
4g
(>8qdd/
16ccLL)
16b-
16a
16gJJ)
=55
4d
16f#XLL
16d
16f#
16aJJ
=56
4g
4gg
=57
4d
16f#XLL
16d
16f#
16aJJ
=58
4g
16ccLL
16b-
16a
16gJJ
=59
4d
16f#XLL
16d
16f#
16aJJ
=60
2g
*>eM
==
*-
